static/assets/img/icons/theme/home/toilet.svg

<svg height="24" viewBox="0 0 24 24" width="24" xmlns="http://www.w3.org/2000/svg"><g fill="#000" fill-rule="evenodd"><rect height="4" opacity=".3" rx="1" width="12" x="6" y="1"/><path d="m17.8608177 12.8865418c.0911472.5196928.1391823 1.0595635.1391823 1.6134582 0 4.1421356-2.6862915 7.5-6 7.5s-6-3.3578644-6-7.5c0-.5538947.04803512-1.0937654.13918227-1.6134582l.64182641-5.13461127c.12510721-1.00085764.97590922-1.75193053 1.98455576-1.75193053h6.46887116c1.0086465 0 1.8594485.75107289 1.9845557 1.75193053zm-5.8608177 7.1134582c2.209139 0 4-2.2385763 4-5s-1.790861-5-4-5-4 2.2385763-4 5 1.790861 5 4 5z"/><path d="m11 14h2c.2761424 0 .5.2238576.5.5v1c0 .8284271-.6715729 1.5-1.5 1.5-.8284271 0-1.5-.6715729-1.5-1.5v-1c0-.2761424.2238576-.5.5-.5z" opacity=".3"/></g></svg>

<svg width="24px" height="24px" viewBox="0 0 24 24" version="1.1" xmlns="http://www.w3.org/2000/svg" xmlns:xlink="http://www.w3.org/1999/xlink">
    <title>Icon For Toilet</title>
    <g stroke="none" stroke-width="1" fill="none" fill-rule="evenodd">
        <rect fill="#000000" opacity="0.3" x="6" y="1" width="12" height="4" rx="1"></rect>
        <path d="M17.8608177,12.8865418 C17.9519649,13.4062346 18,13.9461053 18,14.5 C18,18.6421356 15.3137085,22 12,22 C8.6862915,22 6,18.6421356 6,14.5 C6,13.9461053 6.04803512,13.4062346 6.13918227,12.8865418 L6.78100868,7.75193053 C6.90611589,6.75107289 7.7569179,6 8.76556444,6 L15.2344356,6 C16.2430821,6 17.0938841,6.75107289 17.2189913,7.75193053 L17.8608177,12.8865418 Z M12,20 C14.209139,20 16,17.7614237 16,15 C16,12.2385763 14.209139,10 12,10 C9.790861,10 8,12.2385763 8,15 C8,17.7614237 9.790861,20 12,20 Z" fill="#000000"></path>
        <path d="M11,14 L13,14 C13.2761424,14 13.5,14.2238576 13.5,14.5 L13.5,15.5 C13.5,16.3284271 12.8284271,17 12,17 L12,17 C11.1715729,17 10.5,16.3284271 10.5,15.5 L10.5,14.5 C10.5,14.2238576 10.7238576,14 11,14 Z" fill="#000000" opacity="0.3"></path>
    </g>
</svg>
